!!!COM: Palestrina, Giovanni Perluigi da
!!!OPR: De beata virgine (1567)
!!!OTL: Sanctus
**kern	**kern	**kern	**kern
*Ibass	*Itenor	*Icalto	*Icant
!Bassus	!Tenor	!Altus	!Cantus
*clefF4	*clefGv2	*clefG2	*clefG2
*k[b-]	*k[b-]	*k[b-]	*k[b-]
*?:X	*?:X	*?:X	*?:X
*M4/2	*M4/2	*M4/2	*M4/2
=1	=1	=1	=1
0r	1r	0g	0r
.	[1c	.	.
=2	=2	=2	=2
0r	1c]	0e	0cc
.	[1A	.	.
=3	=3	=3	=3
0r	1A]	0c	0a
.	1F	.	.
=4	=4	=4	=4
0r	2.B-	0d	0f
.	4c	.	.
.	4d	.	.
.	4e	.	.
.	[2f	.	.
=5	=5	=5	=5
0c	2f]	1c	0g
.	4e	.	.
.	4d	.	.
.	1e	2r	.
.	.	[2c	.
=6	=6	=6	=6
0A	2r	4c]	2.a
.	.	4d	.
.	2.c	2e	.
.	.	.	4g
.	.	2f	4a
.	4d	.	4b-
.	2e	2e	[2cc
=7	=7	=7	=7
0F	1.f	0a	4cc]
.	.	.	4a
.	.	.	2.dd
.	.	.	4cc
.	2e	.	[2cc
=8	=8	=8	=8
0G	0d	1g	2cc]
.	.	.	4b-
.	.	.	4a
.	.	1g	1b
=9	=9	=9	=9
2.A	2.c	1e	0cc
4G	4B-	.	.
4A	1A	1c	.
4B-	.	.	.
[2c	.	.	.
=10	=10	=10	=10
2c]	1G	1g	1dd
2B-	.	.	.
2.A	2.c	2r	1ee
.	.	[2a	.
4G	4B-	.	.
=11	=11	=11	=11
2F	4A	2a]	0ff
.	4F	.	.
2E	1c	2g	.
1D	.	2f	.
.	2B	2d	.
=12	=12	=12	=12
2C	1c	0g	1ee
1c	.	.	.
.	2G	.	1dd
2B	[2g	.	.
=13	=13	=13	=13
1c	4g]	2r	1cc
.	4f	.	.
.	4e	2.c	.
.	4d	.	.
1r	2e	.	1cc
.	.	4d	.
.	2c	4e	.
.	.	4c	.
=14	=14	=14	=14
2r	2d	2.f	0a
2.F	2c	.	.
.	.	4e	.
.	1f	2d	.
4G	.	.	.
4A	.	2c	.
4F	.	.	.
=15	=15	=15	=15
2B-	0r	2d	0f
2A	.	2c	.
1d	.	2B-	.
.	.	[2f	.
=16	=16	=16	=16
2c	0c	2f]	0g
2.C	.	4e	.
.	.	4d	.
.	.	1e	.
4D	.	.	.
4E	.	.	.
4C	.	.	.
=17	=17	=17	=17
2.F	0A	2c	2.f
.	.	1f	.
4E	.	.	4g
2D	.	.	4a
.	.	.	4b-
2C	.	2e	2cc
=18	=18	=18	=18
0D	0F	2.d	2b-
.	.	.	2.a
.	.	8c	.
.	.	8B-	.
.	.	2A	.
.	.	.	4g
.	.	2B	[2f
=19	=19	=19	=19
0C	0G	0c	2f]
.	.	.	4e
.	.	.	4d
.	.	.	1e
=20	=20	=20	=20
1F	2F	[0c	1f
.	1A	.	.
2r	.	.	1r
[2A	2F	.	.
=21	=21	=21	=21
2A]	2.A	1c]	2r
2F	.	.	1a
.	4B-	.	.
2A	2c	1r	.
2B-	2d	.	2f
=22	=22	=22	=22
2c	2e	2r	2.a
2d	2f	1a	.
.	.	.	4b-
2A	2e	.	2cc
2B-	2d	2f	[2dd
=23	=23	=23	=23
1F	2.f	1a	4dd]
.	.	.	4cc
.	.	.	1cc
.	4e	.	.
1G	1d	2.g	.
.	.	.	2b
.	.	4f	.
=24	=24	=24	=24
1C	2r	4e	1cc
.	.	4d	.
.	1c	2e	.
1F	.	1A	1r
.	2d	.	.
=25	=25	=25	=25
2G	2e	2r	0r
2A	1f	2c	.
1B-	.	1d	.
.	4e	.	.
.	4d	.	.
=26	=26	=26	=26
2.A	2c	2e	2r
.	4F	1f	2cc
4G	4G	.	.
2F	4A	.	2dd
.	4F	.	.
2E	[2c	2g	2ee
=27	=27	=27	=27
1D	2c]	2a	1.ff
.	2B	2d	.
[1C	1c	1g	.
.	.	.	4ee
.	.	.	4dd
=28	=28	=28	=28
1C]	1g	2r	4ee
.	.	.	4dd
.	.	2c	4cc
.	.	.	4b-
1r	2f	2d	2a
.	2e	2e	2g
=29	=29	=29	=29
1r	1d	1f	2a
.	.	.	2b
2r	1c	2e	1cc
2F	.	2a	.
=30	=30	=30	=30
2G	2r	2g	2b-
2A	2c	2.f	1a
1B-	2.d	.	.
.	.	4e	.
.	.	[2d	2g
.	4e	.	.
=31	=31	=31	=31
2.A	2f	2d]	1a
.	2e	2c	.
4G	.	.	.
2F	2d	2d	2r
2E	[2c	2e	2g
=32	=32	=32	=32
1D	2c]	1.f	2a
.	2B-	.	2b-
[1C	2A	.	2.cc
.	2G	4e	.
.	.	4d	4b-
=33	=33	=33	=33
1C]	2.c	1e	2a
.	.	.	2g
.	4B-	.	.
1D	4A	[1d	2f
.	4G	.	.
.	2F	.	2a
=34	=34	=34	=34
1BB-	2.B-	1d]	2g
.	.	.	1f
.	4A	.	.
1C	1G	1c	.
.	.	.	2e
=35	=35	=35	=35
[0F	[0F	[0c	[0f
=36	=36	=36	=36
0F]	0F]	0c]	0f]
*	*	*	*-
!! Pleni
*Itenor	*Icalto	*Icant
!Tenor	!Altus	!Cantus
*clefGv2	*clefG2	*clefG2
*k[b-]	*k[b-]	*k[b-]
*?:X	*?:X	*?:X
*M4/2	*M4/2	*M4/2
=37	=37	=37
0c	1r	0r
.	[1g	.
=38	=38	=38
1B-	1g]	0r
2.A	1f	.
4B-	.	.
=39	=39	=39
4c	2.e	1r
4d	.	.
1c	.	.
.	4f	.
.	4g	[1cc
.	4a	.
2B-	[2g	.
=40	=40	=40
2A	4g]	1cc]
.	4f	.
4G	1f	.
4F	.	.
1G	.	1b-
.	2e	.
=41	=41	=41
1F	2.f	2.a
.	4g	4b-
1r	1a	4cc
.	.	4dd
.	.	[2cc
=42	=42	=42
0f	1r	2cc]
.	.	2b-
.	[1cc	2a
.	.	4g
.	.	4f
=43	=43	=43
1e	1cc]	1g
2.d	1b-	1f
4e	.	.
=44	=44	=44
4f	2.a	0ff
4g	.	.
1f	.	.
.	4b-	.
.	4cc	.
.	4b	.
4e	[2cc	.
4d	.	.
=45	=45	=45
1c	4cc]	1ee
.	4b-	.
.	4a	.
.	4g	.
[1d	2f	2.dd
.	[2b-	.
.	.	4ee
=46	=46	=46
1d]	2b-]	4ff
.	.	4gg
.	1a	1ff
1B-	.	.
.	2g	4ee
.	.	4dd
=47	=47	=47
1A	2.a	2cc
.	.	1cc
.	4g	.
2r	4e	.
.	4f	.
2B-	[2g	2b-
=48	=48	=48
2c	4g]	2a
.	4f	.
2d	1f	2f
1c	.	1g
.	2e	.
=49	=49	=49
2r	4f	1a
.	4g	.
1f	4a	.
.	4f	.
.	1g	1r
2e	.	.
=50	=50	=50
2d	0a	1r
2c	.	.
2.d	.	1f
4e	.	.
=51	=51	=51
1f	2r	1a
.	1f	.
2.c	.	1g
.	2e	.
8B-	.	.
8A	.	.
=52	=52	=52
2B	2d	0g
2c	2c	.
2B	2d	.
2c	2e	.
=53	=53	=53
1F	4f	0cc
.	4g	.
.	4a	.
.	4b-	.
2r	[1a	.
[2f	.	.
=54	=54	=54
2f]	2a]	1cc
2e	2g	.
4d	2r	[1dd
4c	.	.
4d	[2b-	.
4e	.	.
=55	=55	=55
1f	2b-]	2dd]
.	2a	4cc
.	.	4b-
2e	2g	2cc
2d	2f	[2dd
=56	=56	=56
2e	2g	4dd]
.	.	4cc
2f	1a	1cc
1d	.	.
.	4g	2b
.	4f	.
=57	=57	=57
2c	2e	0cc
1f	2a	.
.	1g	.
2e	.	.
=58	=58	=58
2f	2r	0r
4F	1f	.
4G	.	.
4A	.	.
4B-	.	.
2c	2e	.
=59	=59	=59
2B-	2d	0f
2A	2c	.
1B-	2.d	.
.	4e	.
=60	=60	=60
0F	2.f	0a
.	8e	.
.	8d	.
.	2c	.
.	[2f	.
=61	=61	=61
2r	2f]	1g
1c	4e	.
.	4d	.
.	2e	1g
2B-	[2g	.
=62	=62	=62
2.A	2g]	2.cc
.	2f	.
4G	.	4b
2A	2e	2cc
2B	2d	[2dd
=63	=63	=63
2c	2e	4dd]
.	.	4cc
2F	2f	1cc
1G	1d	.
.	.	2b
=64	=64	=64
2.A	2c	1cc
.	1a	.
4G	.	.
2F	.	2.cc
2E	2g	.
.	.	4b-
=65	=65	=65
2F	2f	2a
2c	2e	2g
1F	1f	1a
=66	=66	=66
0c	0e	0g
*-	*-	*-
!! Hosanna
**kern	**kern	**kern	**kern
*Ibass	*Itenor	*Icalto	*Icant
!Bassus	!Tenor	!Altus	!Cantus
*clefF4	*clefGv2	*clefG2	*clefG2
*k[b-]	*k[b-]	*k[b-]	*k[b-]
*?:X	*?:X	*?:X	*?:X
*M3/2	*M3/2	*M3/2	*M3/2
=67	=67	=67	=67
1r	2r	1f	1r
.	2r	.	.
2r	[2c	2g	2r
=68	=68	=68	=68
1r	2c]	2a	1r
.	2d	1b-	.
2r	2e	.	2r
=69	=69	=69	=69
1r	2.f	2.a	1cc
.	4e	4g	.
2r	2d	4a	2dd
.	.	4b-	.
=70	=70	=70	=70
1r	2c	1cc	2ee
.	1d	.	1ff
2r	.	2b	.
=71	=71	=71	=71
2r	2c	4cc	2ee
.	.	4b-	.
2r	2d	4a	2.ff
.	.	4g	.
[2F	[2f	[2a	.
.	.	.	4ee
=72	=72	=72	=72
2F]	2f]	2a]	1dd
2G	1e	2b-	.
2A	.	2a	2cc#
=73	=73	=73	=73
2.B-	2.d	2r	1.dd
.	.	2f	.
4A	4c	.	.
2G	4d	2g	.
.	4e	.	.
=74	=74	=74	=74
2F	1f	2a	1r
1G	.	2b-	.
.	2e	2g	2r
=75	=75	=75	=75
2F	2.f	1a	1cc
2A	.	.	.
.	4e	.	.
2B	2d	[2g	2dd
=76	=76	=76	=76
1c	2c	2g]	2ee
.	2d	2r	2ff
2B	2G	[2g	2dd
=77	=77	=77	=77
2c	2r	2g]	2ee
2F	2c	2a	1ff
2r	2d	2b	.
=78	=78	=78	=78
1r	2e	1cc	2ee
.	2f	.	1dd
2r	2g	2b-	.
=79	=79	=79	=79
1F	1c	1a	1cc
2G	2r	2g	2b
=80	=80	=80	=80
2A	2c	2.f	1a
1B-	2.d	.	.
.	.	4e	.
.	.	2d	2g
.	4e	.	.
=81	=81	=81	=81
2A	2.f	2c	2a
1B-	.	2d	2f
.	4e	.	.
.	2d	2B-	2g
=82	=82	=82	=82
2A	2c	2c	2a
1G	1B-	2d	1b-
.	.	2e	.
=83	=83	=83	=83
2F	2.c	2f	2a
2C	.	2e	2.g
.	4B-	.	.
2F	2A	[2d	.
.	.	.	4f
=84	=84	=84	=84
2BB-	2B-	2d]	1f
1C	1G	2c	.
.	.	2r	2e
=85	=85	=85	=85
1F	2F	2c	2f
.	2r	2d	2f
2r	[2c	2e	2g
=86	=86	=86	=86
1F	2c]	2.f	1a
.	2.d	.	.
.	.	4e	.
2G	.	2d	2b-
.	4e	.	.
=87	=87	=87	=87
2A	1f	2c	1a
1B-	.	1d	.
.	4e	.	2g
.	4d	.	.
=88	=88	=88	=88
2A	2e	2c	2a
1B-	2.d	2f	2r
.	.	2g	2r
.	4e	.	.
=89	=89	=89	=89
2A	2f	2a	2cc
1G	1B-	1b-	2dd
.	.	.	2ee
=90	=90	=90	=90
2F	2c	2a	2.ff
2.B-	2d	1b-	.
.	.	.	4ee
.	[2f	.	2dd
4A	.	.	.
=91	=91	=91	=91
2F	4f]	2a	1cc
.	4e	.	.
1G	1d	1g	.
.	.	.	2b
=92	=92	=92	=92
2.A	2c	2e	1cc
.	4F	2c	.
4G	4G	.	.
2F	4A	2d	2r
.	4B-	.	.
=93	=93	=93	=93
2E	1c	2e	1r
1D	.	1f	.
.	2B	.	2r
=94	=94	=94	=94
2C	1c	2e	1g
2E-	.	2.g	.
[2D	[2F	.	2a
.	.	4f	.
=95	=95	=95	=95
2D]	2F]	1f	2b
1C	1G	.	1cc
.	.	2e	.
=96	=96	=96	=96
2.D	2F	[1.f	2a
.	2A	.	1dd
4C	.	.	.
2BB-	2B-	.	.
=97	=97	=97	=97
2AA	2c	1.f]	2cc
1BB-	1d	.	1b-
=98	=98	=98	=98
1.F	1.c	1.f	1.a
==	==	==	==
*-	*-	*-	*-
!!!CDT: 1525/^1526/-1594/2/2
!!!OCY: Italia
!!!AGN: Mass (Paraphrase)
!!!AST: renaissance, vocal
!!!ASW: Gregorian Mass
!!!PWK: Masses, Book 2
!!!RNB: Cadence finals: G,D,E,F,C
!!!YOR: Le Opere Complete, v. 4, p. 1
!!!YOO: Rome, Italy: Fratelli Scalera
!!!END: 1992//
!!!EED: John Miller
!!!YEC: Copyright 2000, John Miller
!!!YEN: United States of America
!!!YEM: Rights to all derivative electronic formats reserved.
!!!YEM: Refer to licensing agreement for further details.
!!!YEM: This file must be accompanied by the licensing agreement.
!!!YEM: A copy of the licensing agreement may be found at http://www.music-cog.ohio-state.edu/HumdrumDatabases/Palestrina/license.txt
!!!EMD: converted to Humdrum by Bret Aarden
